Origami/16x16/apps/goodvibes.svg

<svg width="16" height="16" version="1" xmlns="http://www.w3.org/2000/svg">
 <rect transform="scale(-1,1)" x="-16" y="2" width="16" height="13" rx=".8" ry=".813" style="fill:#ffc543"/>
 <circle cx="3.5" cy="10.5" r="2.5" style="fill:#ff5100"/>
 <rect x="1" y="3" width="14" height="3" style="fill:#4d4d4d"/>
 <rect transform="rotate(90)" x="4" y="-6" width="2" height="1" style="fill:#ff5100"/>
 <path d="M 12.5,8 A 0.5,0.5 0 0 0 12,8.5 0.5,0.5 0 0 0 12.5,9 0.5,0.5 0 0 0 13,8.5 0.5,0.5 0 0 0 12.5,8 Z" style="fill:#4d4d4d"/>
 <path d="M 14.5,8 A 0.5,0.5 0 0 0 14,8.5 0.5,0.5 0 0 0 14.5,9 0.5,0.5 0 0 0 15,8.5 0.5,0.5 0 0 0 14.5,8 Z" style="fill:#4d4d4d"/>
 <path d="M 10.5,8 A 0.5,0.5 0 0 0 10,8.5 0.5,0.5 0 0 0 10.5,9 0.5,0.5 0 0 0 11,8.5 0.5,0.5 0 0 0 10.5,8 Z" style="fill:#4d4d4d"/>
 <path d="m12.5 10a0.5 0.5 0 0 0 -0.5 0.5 0.5 0.5 0 0 0 0.5 0.5 0.5 0.5 0 0 0 0.5 -0.5 0.5 0.5 0 0 0 -0.5 -0.5z" style="fill:#4d4d4d"/>
 <path d="m14.5 10a0.5 0.5 0 0 0 -0.5 0.5 0.5 0.5 0 0 0 0.5 0.5 0.5 0.5 0 0 0 0.5 -0.5 0.5 0.5 0 0 0 -0.5 -0.5z" style="fill:#4d4d4d"/>
 <path d="m10.5 10a0.5 0.5 0 0 0 -0.5 0.5 0.5 0.5 0 0 0 0.5 0.5 0.5 0.5 0 0 0 0.5 -0.5 0.5 0.5 0 0 0 -0.5 -0.5z" style="fill:#4d4d4d"/>
 <path d="m12.5 12a0.5 0.5 0 0 0 -0.5 0.5 0.5 0.5 0 0 0 0.5 0.5 0.5 0.5 0 0 0 0.5 -0.5 0.5 0.5 0 0 0 -0.5 -0.5z" style="fill:#4d4d4d"/>
 <path d="m14.5 12a0.5 0.5 0 0 0 -0.5 0.5 0.5 0.5 0 0 0 0.5 0.5 0.5 0.5 0 0 0 0.5 -0.5 0.5 0.5 0 0 0 -0.5 -0.5z" style="fill:#4d4d4d"/>
 <path d="m10.5 12a0.5 0.5 0 0 0 -0.5 0.5 0.5 0.5 0 0 0 0.5 0.5 0.5 0.5 0 0 0 0.5 -0.5 0.5 0.5 0 0 0 -0.5 -0.5z" style="fill:#4d4d4d"/>
</svg>

<svg xmlns="http://www.w3.org/2000/svg" width="16" height="16" version="1">
 <rect style="fill:#ffc543" width="16" height="13" x="-16" y="2" rx=".8" ry=".813" transform="scale(-1,1)"/>
 <circle style="fill:#ff5100" cx="3.5" cy="10.5" r="2.5"/>
 <rect style="fill:#4d4d4d" width="14" height="3" x="1" y="3"/>
 <rect style="fill:#ff5100" width="2" height="1" x="4" y="-6" transform="matrix(0,1,-1,0,0,0)"/>
 <path style="fill:#4d4d4d" d="M 12.5,8 A 0.5,0.5 0 0 0 12,8.5 0.5,0.5 0 0 0 12.5,9 0.5,0.5 0 0 0 13,8.5 0.5,0.5 0 0 0 12.5,8 Z"/>
 <path style="fill:#4d4d4d" d="M 14.5,8 A 0.5,0.5 0 0 0 14,8.5 0.5,0.5 0 0 0 14.5,9 0.5,0.5 0 0 0 15,8.5 0.5,0.5 0 0 0 14.5,8 Z"/>
 <path style="fill:#4d4d4d" d="M 10.5,8 A 0.5,0.5 0 0 0 10,8.5 0.5,0.5 0 0 0 10.5,9 0.5,0.5 0 0 0 11,8.5 0.5,0.5 0 0 0 10.5,8 Z"/>
 <path style="fill:#4d4d4d" d="M 12.5,10 A 0.5,0.5 0 0 0 12,10.5 0.5,0.5 0 0 0 12.5,11 0.5,0.5 0 0 0 13,10.5 0.5,0.5 0 0 0 12.5,10 Z"/>
 <path style="fill:#4d4d4d" d="M 14.5,10 A 0.5,0.5 0 0 0 14,10.5 0.5,0.5 0 0 0 14.5,11 0.5,0.5 0 0 0 15,10.5 0.5,0.5 0 0 0 14.5,10 Z"/>
 <path style="fill:#4d4d4d" d="M 10.5,10 A 0.5,0.5 0 0 0 10,10.5 0.5,0.5 0 0 0 10.5,11 0.5,0.5 0 0 0 11,10.5 0.5,0.5 0 0 0 10.5,10 Z"/>
 <path style="fill:#4d4d4d" d="M 12.5,12 A 0.5,0.5 0 0 0 12,12.5 0.5,0.5 0 0 0 12.5,13 0.5,0.5 0 0 0 13,12.5 0.5,0.5 0 0 0 12.5,12 Z"/>
 <path style="fill:#4d4d4d" d="M 14.5,12 A 0.5,0.5 0 0 0 14,12.5 0.5,0.5 0 0 0 14.5,13 0.5,0.5 0 0 0 15,12.5 0.5,0.5 0 0 0 14.5,12 Z"/>
 <path style="fill:#4d4d4d" d="M 10.5,12 A 0.5,0.5 0 0 0 10,12.5 0.5,0.5 0 0 0 10.5,13 0.5,0.5 0 0 0 11,12.5 0.5,0.5 0 0 0 10.5,12 Z"/>
</svg>
